packages/ui/public/icons/message-text-icon.svg

<svg width="24" height="24" viewBox="0 0 24 24" fill="none" xmlns="http://www.w3.org/2000/svg">
<path d="M3 7.8C3 6.11984 3 5.27976 3.32698 4.63803C3.6146 4.07354 4.07354 3.6146 4.63803 3.32698C5.27976 3 6.11984 3 7.8 3H16.2C17.8802 3 18.7202 3 19.362 3.32698C19.9265 3.6146 20.3854 4.07354 20.673 4.63803C21 5.27976 21 6.11984 21 7.8V13.2C21 14.8802 21 15.7202 20.673 16.362C20.3854 16.9265 19.9265 17.3854 19.362 17.673C18.7202 18 17.8802 18 16.2 18H9.68375C9.0597 18 8.74767 18 8.44921 18.0613C8.18443 18.1156 7.9282 18.2055 7.68749 18.3285C7.41617 18.4671 7.17252 18.662 6.68521 19.0518L4.29976 20.9602C3.88367 21.2931 3.67563 21.4595 3.50054 21.4597C3.34827 21.4599 3.20422 21.3906 3.10923 21.2716C3 21.1348 3 20.8684 3 20.3355V7.8Z" stroke="white" stroke-width="2" stroke-linecap="round" stroke-linejoin="round"/>
<path d="M7 12H15M7 8.5H12H7Z" stroke="white" stroke-width="2" stroke-linecap="round" stroke-linejoin="round"/>
</svg>

<svg width="24" height="24" fill="none" xmlns="http://www.w3.org/2000/svg"><path d="M3 7.8c0-1.68 0-2.52.327-3.162a3 3 0 0 1 1.311-1.311C5.28 3 6.12 3 7.8 3h8.4c1.68 0 2.52 0 3.162.327a3 3 0 0 1 1.311 1.311C21 5.28 21 6.12 21 7.8v5.4c0 1.68 0 2.52-.327 3.162a3 3 0 0 1-1.311 1.311C18.72 18 17.88 18 16.2 18H9.684c-.624 0-.936 0-1.235.061a2.997 2.997 0 0 0-.762.267c-.27.14-.514.334-1.002.724L4.3 20.96c-.416.333-.624.5-.8.5a.5.5 0 0 1-.39-.188C3 21.135 3 20.868 3 20.336V7.8ZM7 12h8M7 8.5h5-5Z" stroke="#fff" stroke-width="2" stroke-linecap="round" stroke-linejoin="round"/></svg>
